X: 12217
T: Fair City, The
R: jig
M: 6/8
K: Eminor
|:"Em"BEE G2F|DEE E2G|"D"FDD ADD|BBB AFA|
"Em"BEE G2F|DEE E2G|"D"FDD dAc|"Em"BEE E2A:|
|:"Em"B^cd eBd|^cAc BBB|"D"AFF ADD|BBB AFA|
"Em"B^cd eBd|^cAc BBB|"D"AFF dA^c|"Em"BEE E2A:|

